X:381
T: "Trost"
N: Z1061
O: Europa, Mitteleuropa, Deutschland, Mittelrhein
R: Romanze, Ballade
M: 2/4
L: 1/16
K: G
D2 | G2D2B,2D2 | G2B2G2
B2 | A2G2F2E2 | D6
D2 | D2E2F2G2 | A3BA2
d2 | G2G2G2BA | G4z2

@@@ Tune index: 10139
